src/svg/ruby.svg

<svg height="16" width="16" xmlns="http://www.w3.org/2000/svg" viewBox="0 0 16 16">
  <path d="M13 6L8 11V4h3l2 2z m3 0L8 14 0 6l4-4h8l4 4zM8 12.5l6.5-6.5-3-3H4.5L1.5 6l6.5 6.5z" />
</svg>

<?xml version="1.0" encoding="UTF-8" standalone="no"?>
<svg width="16px" height="16px" viewBox="0 0 16 16" version="1.1" xmlns="http://www.w3.org/2000/svg" xmlns:xlink="http://www.w3.org/1999/xlink">
    <!-- Generator: Sketch 3.7.1 (28215) - http://www.bohemiancoding.com/sketch -->
    <title>ruby</title>
    <desc>Created with Sketch.</desc>
    <defs></defs>
    <g id="Octicons" stroke="none" stroke-width="1" fill="none" fill-rule="evenodd">
        <g id="ruby" fill="#000000">
            <path d="M13,6 L8,11 L8,4 L11,4 L13,6 L13,6 Z M16,6 L8,14 L0,6 L4,2 L12,2 L16,6 L16,6 Z M8,12.5 L14.5,6 L11.5,3 L4.5,3 L1.5,6 L8,12.5 L8,12.5 Z" id="Shape"></path>
        </g>
    </g>
</svg>
